svgs/thin/compress-wide.svg

<svg xmlns="http://www.w3.org/2000/svg" viewBox="0 0 512 512"><!--! Font Awesome Pro 6.6.0 by @fontawesome - https://fontawesome.com License - https://fontawesome.com/license (Commercial License) Copyright 2024 Fonticons, Inc. --><path d="M144 72c0-4.4 3.6-8 8-8s8 3.6 8 8l0 144c0 4.4-3.6 8-8 8L8 224c-4.4 0-8-3.6-8-8s3.6-8 8-8l136 0 0-136zm8 216c4.4 0 8 3.6 8 8l0 144c0 4.4-3.6 8-8 8s-8-3.6-8-8l0-136L8 304c-4.4 0-8-3.6-8-8s3.6-8 8-8l144 0zM368 72l0 136 136 0c4.4 0 8 3.6 8 8s-3.6 8-8 8l-144 0c-4.4 0-8-3.6-8-8l0-144c0-4.4 3.6-8 8-8s8 3.6 8 8zm-8 216l144 0c4.4 0 8 3.6 8 8s-3.6 8-8 8l-136 0 0 136c0 4.4-3.6 8-8 8s-8-3.6-8-8l0-144c0-4.4 3.6-8 8-8z"/></svg>

<svg xmlns="http://www.w3.org/2000/svg" viewBox="0 0 512 512"><!--! Font Awesome Pro 6.4.2 by @fontawesome - https://fontawesome.com License - https://fontawesome.com/license (Commercial License) Copyright 2023 Fonticons, Inc. --><path d="M144 72c0-4.4 3.6-8 8-8s8 3.6 8 8V216c0 4.4-3.6 8-8 8H8c-4.4 0-8-3.6-8-8s3.6-8 8-8H144V72zm8 216c4.4 0 8 3.6 8 8V440c0 4.4-3.6 8-8 8s-8-3.6-8-8V304H8c-4.4 0-8-3.6-8-8s3.6-8 8-8H152zM368 72V208H504c4.4 0 8 3.6 8 8s-3.6 8-8 8H360c-4.4 0-8-3.6-8-8V72c0-4.4 3.6-8 8-8s8 3.6 8 8zm-8 216H504c4.4 0 8 3.6 8 8s-3.6 8-8 8H368V440c0 4.4-3.6 8-8 8s-8-3.6-8-8V296c0-4.4 3.6-8 8-8z"/></svg>
